docs/images/line.svg

<svg viewBox="0 0 64 64" xmlns="http://www.w3.org/2000/svg"><path d="m64 27.13c0 5.7-2.21 10.87-6.83 15.87-6.69 7.7-21.64 17.07-25 18.51s-2.9-.92-2.76-1.72l.45-2.73a6.52 6.52 0 0 0 -.1-2.88c-.36-.89-1.77-1.35-2.81-1.57-15.36-1.99-26.7-12.7-26.7-25.48 0-14.27 14.3-25.87 31.88-25.87s31.87 11.6 31.87 25.87m-38.35-6.9h-2.24a.62.62 0 0 0 -.62.62v13.89a.62.62 0 0 0 .62.62h2.24a.62.62 0 0 0 .62-.62v-13.89a.62.62 0 0 0 -.62-.62m15.39 0h-2.24a.62.62 0 0 0 -.62.62v8.25l-6.36-8.59-.05-.06a.08.08 0 0 1 0 0h-2.7a.63.63 0 0 0 -.63.62v13.67a.63.63 0 0 0 .63.62h2.23a.62.62 0 0 0 .62-.62v-8.25l6.37 8.61a.75.75 0 0 0 .16.15h.16 2.39a.62.62 0 0 0 .62-.62v-13.78a.62.62 0 0 0 -.62-.62m-20.74 11.65h-6.07v-11a.62.62 0 0 0 -.62-.62h-2.24a.62.62 0 0 0 -.62.62v13.86a.64.64 0 0 0 .17.43.6.6 0 0 0 .43.17h8.93a.62.62 0 0 0 .62-.62v-2.22a.62.62 0 0 0 -.62-.62m33.13-8.17a.62.62 0 0 0 .62-.62v-2.23a.63.63 0 0 0 -.62-.63h-8.92a.62.62 0 0 0 -.43.18.6.6 0 0 0 -.18.42v13.91a.6.6 0 0 0 .18.43.63.63 0 0 0 .43.17h8.94a.62.62 0 0 0 .62-.62v-2.22a.62.62 0 0 0 -.62-.62h-6.08v-2.34h6.08a.62.62 0 0 0 .62-.62v-2.24a.62.62 0 0 0 -.62-.62h-6.08v-2.35z" fill="#fff"/></svg>

<svg id="レイヤー_1" data-name="レイヤー 1" xmlns="http://www.w3.org/2000/svg" viewBox="0 0 64 64"><defs><style>.cls-1{fill:#fff;}</style></defs><title>アートボード 1</title><path class="cls-1" d="M64,27.13C64,32.83,61.79,38,57.17,43h0c-6.69,7.7-21.64,17.07-25,18.51s-2.9-.92-2.76-1.72l.45-2.73a6.52,6.52,0,0,0-.1-2.88c-.36-.89-1.77-1.35-2.81-1.57C11.59,50.62.25,39.91.25,27.13c0-14.27,14.3-25.87,31.88-25.87S64,12.86,64,27.13m-38.35-6.9H23.41a.62.62,0,0,0-.62.62V34.74a.62.62,0,0,0,.62.62h2.24a.62.62,0,0,0,.62-.62V20.85a.62.62,0,0,0-.62-.62m15.39,0H38.8a.62.62,0,0,0-.62.62V29.1l-6.36-8.59-.05-.06h0a.08.08,0,0,1,0,0h0l0,0v0l0,0h0l0,0H29.07a.63.63,0,0,0-.63.62V34.74a.63.63,0,0,0,.63.62H31.3a.62.62,0,0,0,.62-.62V26.49l6.37,8.61a.75.75,0,0,0,.16.15h0l0,0h0l0,0h0l0,0h0l.16,0H41a.62.62,0,0,0,.62-.62V20.85a.62.62,0,0,0-.62-.62M20.26,31.88H14.19v-11a.62.62,0,0,0-.62-.62H11.33a.62.62,0,0,0-.62.62V34.74h0a.64.64,0,0,0,.17.43h0a.6.6,0,0,0,.43.17h8.93a.62.62,0,0,0,.62-.62V32.5a.62.62,0,0,0-.62-.62m33.13-8.17a.62.62,0,0,0,.62-.62V20.86a.63.63,0,0,0-.62-.63H44.45a.62.62,0,0,0-.43.18h0a.6.6,0,0,0-.18.42h0V34.74h0a.6.6,0,0,0,.18.43h0a.63.63,0,0,0,.43.17h8.94a.62.62,0,0,0,.62-.62V32.5a.62.62,0,0,0-.62-.62H47.31V29.54h6.08a.62.62,0,0,0,.62-.62V26.68a.62.62,0,0,0-.62-.62H47.31V23.71Z"/></svg>
